Source/img/icon-instagram.svg

<?xml version="1.0"?>
<svg xmlns="http://www.w3.org/2000/svg" xmlns:xlink="http://www.w3.org/1999/xlink" version="1.1" viewBox="0 0 224 224" width="512px" height="512px"><g fill="none" fill-rule="nonzero" stroke="none" stroke-width="1" stroke-linecap="butt" stroke-linejoin="miter" stroke-miterlimit="10" stroke-dasharray="" stroke-dashoffset="0" font-family="none" font-weight="none" font-size="none" text-anchor="none" style="mix-blend-mode: normal"><path d="M0,224v-224h224v224z" fill="none"/><g fill="#0078b3"><g id="surface1"><path d="M80.28125,35c-24.85547,0 -45.28125,20.39844 -45.28125,45.28125v63.4375c0,24.85547 20.39844,45.28125 45.28125,45.28125h63.4375c24.85547,0 45.28125,-20.39843 45.28125,-45.28125v-63.4375c0,-24.85547 -20.39843,-45.28125 -45.28125,-45.28125zM80.28125,49h63.4375c17.30859,0 31.28125,13.97266 31.28125,31.28125v63.4375c0,17.30859 -13.97266,31.28125 -31.28125,31.28125h-63.4375c-17.30859,0 -31.28125,-13.97266 -31.28125,-31.28125v-63.4375c0,-17.30859 13.97266,-31.28125 31.28125,-31.28125zM153.34375,64.3125c-3.52734,0 -6.34375,2.81641 -6.34375,6.34375c0,3.52734 2.81641,6.34375 6.34375,6.34375c3.52734,0 6.34375,-2.81641 6.34375,-6.34375c0,-3.52734 -2.81641,-6.34375 -6.34375,-6.34375zM112,70c-23.10547,0 -42,18.89453 -42,42c0,23.10547 18.89453,42 42,42c23.10547,0 42,-18.89453 42,-42c0,-23.10547 -18.89453,-42 -42,-42zM112,84c15.55859,0 28,12.44141 28,28c0,15.55859 -12.44141,28 -28,28c-15.55859,0 -28,-12.44141 -28,-28c0,-15.55859 12.44141,-28 28,-28z"/></g></g></g></svg>

<svg xmlns="http://www.w3.org/2000/svg" viewBox="0 0 224 224" width="512" height="512"><g fill="none" stroke-miterlimit="10" font-family="none" font-weight="none" font-size="none" text-anchor="none" style="mix-blend-mode:normal"><path d="M0 224V0h224v224z"/><path d="M80.281 35C55.426 35 35 55.398 35 80.281v63.438C35 168.574 55.398 189 80.281 189h63.438C168.574 189 189 168.602 189 143.719V80.28C189 55.426 168.602 35 143.719 35zm0 14h63.438C161.027 49 175 62.973 175 80.281v63.438C175 161.027 161.027 175 143.719 175H80.28C62.973 175 49 161.027 49 143.719V80.28C49 62.973 62.973 49 80.281 49zm73.063 15.313A6.314 6.314 0 0 0 147 70.656 6.314 6.314 0 0 0 153.344 77a6.314 6.314 0 0 0 6.344-6.344 6.314 6.314 0 0 0-6.344-6.344zM112 70c-23.105 0-42 18.895-42 42s18.895 42 42 42 42-18.895 42-42-18.895-42-42-42zm0 14c15.559 0 28 12.441 28 28s-12.441 28-28 28-28-12.441-28-28 12.441-28 28-28z" fill="#0078b3"/></g></svg>
